src/next/cmd/lc_entirerow.svg

<svg height="24" viewBox="0 0 6.3499999 6.3500003" width="24" xmlns="http://www.w3.org/2000/svg" xmlns:xlink="http://www.w3.org/1999/xlink"><linearGradient id="a" gradientUnits="userSpaceOnUse" x1="21.80575135848" x2="21.80575135848" y1="-8.03407350232" y2="15.99937143244"><stop offset="0" stop-color="#fff"/><stop offset="1" stop-color="#555"/></linearGradient><linearGradient id="b" gradientTransform="matrix(0 -.28863951 .38484307 0 -10.775151 265.44259)" gradientUnits="userSpaceOnUse" x1="-88.000031" x2="-88.000031" xlink:href="#k" y1="92" y2="112"/><linearGradient id="c" gradientUnits="userSpaceOnUse" x1="4.618117" x2="13.85435" y1="293.91937" y2="250.81694"><stop offset="0" stop-color="#5ca524"/><stop offset="1" stop-color="#58a11e" stop-opacity=".986274"/></linearGradient><linearGradient id="d" gradientTransform="matrix(.22990089 0 0 .07529725 -1.226107 270.96241)" gradientUnits="userSpaceOnUse" x1="45.508049" x2="46.048" y1="243.57748" y2="16.6203"><stop offset="0" stop-color="#f2fdeb"/><stop offset="1" stop-color="#c8ffa5"/></linearGradient><linearGradient id="e" gradientUnits="userSpaceOnUse" x1="-264.6713" x2="-264.6713" y1="24.629955" y2="32.326817"><stop offset="0" stop-color="#a5a5a5" stop-opacity=".973005"/><stop offset="1" stop-color="#828282" stop-opacity="0"/></linearGradient><linearGradient id="f" gradientTransform="matrix(2.0000002 0 0 1.2500312 -167.99801 -34.670668)" gradientUnits="userSpaceOnUse" x1="53.332001" x2="53.332001" xlink:href="#g" y1="101.334" y2="117.3336"/><linearGradient id="g"><stop offset="0" stop-color="#5ba322"/><stop offset="1" stop-color="#5ba322" stop-opacity="0"/></linearGradient><linearGradient id="h" gradientTransform="matrix(2.0000002 0 0 1.2500312 -146.66521 -34.670668)" gradientUnits="userSpaceOnUse" x1="53.332001" x2="53.332001" xlink:href="#g" y1="101.334" y2="117.3336"/><linearGradient id="i" gradientTransform="matrix(.2368324 0 0 .30118904 -1.263075 260.58765)" gradientUnits="userSpaceOnUse" x1="46.048" x2="46.048" y1="128.01709" y2="16.6203"><stop offset="0" stop-color="#c7cdd7"/><stop offset="1" stop-color="#fff"/></linearGradient><linearGradient id="j" gradientTransform="matrix(.16282229 0 0 .57727902 -284.8805 -33.86804)" gradientUnits="userSpaceOnUse" x1="114.65221" x2="114.65221" y1="104.00124" y2="114.66779"><stop offset="0" stop-color="#e6e9ed"/><stop offset="1" stop-color="#c9d1dc" stop-opacity="0"/></linearGradient><linearGradient id="k" gradientUnits="userSpaceOnUse" x1="-88.000031" x2="-88.000031" y1="92" y2="112"><stop offset="0" stop-color="#595959"/><stop offset="1" stop-color="#595959" stop-opacity="0"/></linearGradient><linearGradient id="l" gradientUnits="userSpaceOnUse" x1="-275.4469" x2="-275.4469" y1="24.629957" y2="32.326817"><stop offset="0" stop-color="#d4feb9"/><stop offset="1" stop-color="#d4feb9" stop-opacity="0"/></linearGradient><filter id="m" color-interpolation-filters="sRGB" height="1.306617" width="1.43589" x="-.217945" y="-.153309"><feGaussianBlur stdDeviation="3.1542391"/></filter><linearGradient id="n" gradientUnits="userSpaceOnUse" x1="32.81356" x2="28.745762" y1="44.474575" y2="19.254236"><stop offset="0" stop-color="#070707"/><stop offset="1" stop-color="#474747"/></linearGradient><g transform="matrix(.171875 0 0 .171875 .264583 -44.696951)"><path d="m-283.14374 24.629957h16.9331v7.696861h-16.9331z" fill="url(#j)" opacity=".764706" transform="rotate(-90)"/><path d="m0 266.21066h24.629957l.02706 24.63822h-24.62995738z" fill="url(#i)"/><path d="m4.618117 296.99997h30.691668v1.05833h-30.691668z" fill="#fff" opacity=".262911"/><path d="m-88 92h5.3332v20h-5.3332z" fill="url(#k)" transform="matrix(0 -.28863951 .38484307 0 -10.775606 259.28286)"/><path d="m-66.667198 92h5.3332v20h-5.3332z" fill="url(#f)" transform="matrix(0 -.28863951 .38484307 0 -10.775606 259.28286)"/><path d="m-45.3344 92h5.3332v20h-5.3332z" fill="url(#h)" transform="matrix(0 -.28863951 .38484307 0 -10.775606 259.28286)"/><path d="m-266.21066 24.629957h1.53937v7.696861h-1.53937z" fill="url(#e)" transform="rotate(-90)"/><path d="m1 3v.9980469 2.9980469.9980468 3.0039064.998047 3.001953 1.005859h.0175781v2.996094 1.003906h.9980469 4.0019531.9980469 4.001953.998047 4.001953 1v-1.003906-3.001953-1-3.001953-1-2.996094-.9980469h-.017578v-.0058593-2.9980469-.9980469h-.998047-4.001953-1-4-1-4.0019531zm.4824219.9980469h5.0332031v2.9980469h-5.0332031zm5.5175781 0h4.515625v2.9980469h-4.515625zm5 0h4.517578v2.9980469h-4.517578zm-10.5 4.0019531h5.015625v2.996094h-5.015625zm5.515625 0h4.5v2.996094h-4.5zm5 0h4.501953v2.996094h-4.501953zm-10.515625 3.996094h5.015625v3.001953h-5.015625zm5.515625 0h4.5v3.001953h-4.5zm5 0h4.501953v3.001953h-4.501953zm-10.515625 4.007812h.4980469 4.0019531.5332031v2.996094h-5.0332031zm5.515625 0h3.984375.533203v2.996094h-4.517578zm5 0h3.986328.53125v2.996094h-4.517578z" fill="url(#a)" stroke-width=".649606" transform="matrix(1.539394 0 0 1.539394 -1.539394 260.05499)"/><path d="m0 272.36813h23.909096v4.61812h-23.909096z" fill="url(#d)"/><path d="m0 270.82886v1.53376 4.62194 1.53789.003h.74414062v-.003h7.74733078v.003h.7441409v-.003h6.9535797v.003h.74414v-.003h6.953581v.003h.743107v-7.69669zm.74414062 1.53376h7.74733078v4.62194h-7.74733078zm8.49147168 0h6.9535797v4.62194h-6.9535797zm7.6977197 0h6.953581v4.62194h-6.953581z" fill="url(#c)"/><path d="m-276.98627 24.629957h4.61811v7.696861h-4.61811z" fill="url(#l)" opacity=".764706" transform="rotate(-90)"/><path d="m24.630412 290.84287v-1.53938h7.696861v1.53938z" fill="url(#b)" stroke-width=".333288"/><g transform="matrix(.396875 0 0 .396875 10.591149 272.51109)"><path d="m22.720703 5.15625c-3.013405.030675-5.734347 2.7794073-5.734375 5.792969v43.93164c.000396 3.429673 3.617041 6.371437 6.97461 5.671875l10.515624-2.189453 2.808594 2.027344c1.551689 1.121614 3.676784 1.397262 5.464844.712891.01127-.0042 1.189475-.440287 2.488281-1.167969.591578-.331442 1.457617-.847678 2.304688-1.658203.390507-.37366 1.041481-1.084667 1.507812-2.017578.576268-1.152849.952286-2.610783.501953-4.41211-.02267-.09068-.161327-.768547-.236328-1.123047l6.808594-4.601562c2.812058-1.90024 3.258266-6.468596.869141-8.878906v-.002l-30.101563-30.3710472c-1.08703-1.096551-2.62791-1.7300375-4.171875-1.7148438z" filter="url(#m)" opacity=".76"/><path d="m17.042969 8.3867188c-2.126608.021647-4.046855 1.9611722-4.046875 4.0878902v43.931641c.00014 1.210187.570764 2.408443 1.509765 3.171875.939002.763432 2.227365 1.076924 3.41211.830078l11.251953-2.341797 3.419922 2.466797c1.095643.791969 2.595135.987874 3.857422.503906h.002c.0091-.0034 1.09236-.410391 2.259765-1.064453.555108-.311009 1.260816-.734296 1.958985-1.402344.33225-.317916.804398-.831261 1.162109-1.546874.413737-.827699.696141-1.943955.373047-3.236329-.07021-.280852-.292605-1.376547-.484375-2.308593l7.755859-5.242188c.992424-.670628 1.662582-1.798167 1.779297-2.990234.116715-1.192068-.322513-2.426961-1.166015-3.277344l-30.10161-30.3730469c-.767134-.7738533-1.853759-1.2197068-2.943359-1.2089843z" fill="#fff" transform="translate(5.694915 -3.525424)"/><path d="m23.737884 11.281217v40.419921l11.863281-2.470703a.95888433.95888433 0 0 1 .755859.16211l4.425782 3.197265c.285679-.118453.599894-.234307 1.154297-.544922.384975-.215689.749087-.464247.9375-.644531.06051-.0579.06738-.07382.08789-.101562-.320785-1.338154-1.054687-5.009766-1.054687-5.009766a.95888433.95888433 0 0 1 .402343-.982422l9.074219-6.130859z" fill="url(#n)"/></g></g></svg>

<?xml version="1.0" encoding="UTF-8" standalone="no"?>
<svg
   xmlns:dc="http://purl.org/dc/elements/1.1/"
   xmlns:cc="http://creativecommons.org/ns#"
   xmlns:rdf="http://www.w3.org/1999/02/22-rdf-syntax-ns#"
   xmlns:svg="http://www.w3.org/2000/svg"
   xmlns="http://www.w3.org/2000/svg"
   xmlns:xlink="http://www.w3.org/1999/xlink"
   xmlns:sodipodi="http://sodipodi.sourceforge.net/DTD/sodipodi-0.dtd"
   xmlns:inkscape="http://www.inkscape.org/namespaces/inkscape"
   height="24"
   viewBox="0 0 6.3499999 6.3500003"
   width="24"
   version="1.1"
   id="svg89"
   sodipodi:docname="lc_entirerow.svg"
   inkscape:version="0.92.4 (unknown)"
   inkscape:export-filename="/home/rizmut/Dokumen/Rizmut/Github/libreoffice-style-karasa-jaga/build/next/cmd/lc_entirerow.png"
   inkscape:export-xdpi="96"
   inkscape:export-ydpi="96">
  <metadata
     id="metadata95">
    <rdf:RDF>
      <cc:Work
         rdf:about="">
        <dc:format>image/svg+xml</dc:format>
        <dc:type
           rdf:resource="http://purl.org/dc/dcmitype/StillImage" />
        <dc:title></dc:title>
      </cc:Work>
    </rdf:RDF>
  </metadata>
  <defs
     id="defs93">
    <linearGradient
       inkscape:collect="always"
       xlink:href="#c"
       id="linearGradient945"
       gradientUnits="userSpaceOnUse"
       x1="32.028248"
       y1="247.68739"
       x2="32.028248"
       y2="284.68433"
       gradientTransform="matrix(0.64960629,0,0,0.64960629,1,-168.93336)" />
    <linearGradient
       inkscape:collect="always"
       xlink:href="#j"
       id="linearGradient950"
       gradientUnits="userSpaceOnUse"
       x1="-88.000031"
       y1="92"
       x2="-88.000031"
       y2="112"
       gradientTransform="matrix(0,-0.28863951,0.38484307,0,-10.775151,265.44259)" />
  </defs>
  <sodipodi:namedview
     pagecolor="#ffffff"
     bordercolor="#666666"
     borderopacity="1"
     objecttolerance="10"
     gridtolerance="10"
     guidetolerance="10"
     inkscape:pageopacity="0"
     inkscape:pageshadow="2"
     inkscape:window-width="1366"
     inkscape:window-height="714"
     id="namedview91"
     showgrid="true"
     inkscape:zoom="14.75"
     inkscape:cx="9.5777063"
     inkscape:cy="6.2129178"
     inkscape:window-x="0"
     inkscape:window-y="28"
     inkscape:window-maximized="1"
     inkscape:current-layer="svg89">
    <inkscape:grid
       type="xygrid"
       id="grid902" />
  </sodipodi:namedview>
  <linearGradient
     id="a"
     gradientUnits="userSpaceOnUse"
     x1="4.6181169"
     x2="13.85435"
     y1="293.91937"
     y2="250.81694">
    <stop
       offset="0"
       stop-color="#5ca524"
       id="stop2" />
    <stop
       offset="1"
       stop-color="#58a11e"
       stop-opacity=".986274"
       id="stop4" />
  </linearGradient>
  <linearGradient
     id="b"
     gradientTransform="matrix(0.22990089,0,0,0.07529725,-1.226107,270.96241)"
     gradientUnits="userSpaceOnUse"
     x1="45.508049"
     x2="46.048"
     y1="243.57748"
     y2="16.6203">
    <stop
       offset="0"
       stop-color="#f2fdeb"
       id="stop7" />
    <stop
       offset="1"
       stop-color="#c8ffa5"
       id="stop9" />
  </linearGradient>
  <linearGradient
     id="c"
     gradientUnits="userSpaceOnUse"
     x1="32.028248"
     x2="32.028248"
     y1="247.68739"
     y2="284.68433">
    <stop
       offset="0"
       stop-color="#fff"
       id="stop12" />
    <stop
       offset="1"
       stop-color="#555"
       id="stop14" />
  </linearGradient>
  <linearGradient
     id="d"
     gradientUnits="userSpaceOnUse"
     x1="-264.6713"
     x2="-264.6713"
     y1="24.629955"
     y2="32.326817">
    <stop
       offset="0"
       stop-color="#a5a5a5"
       stop-opacity=".973005"
       id="stop17" />
    <stop
       offset="1"
       stop-color="#828282"
       stop-opacity="0"
       id="stop19" />
  </linearGradient>
  <linearGradient
     id="e"
     gradientTransform="matrix(2.0000002,0,0,1.2500312,-167.99801,-34.670668)"
     gradientUnits="userSpaceOnUse"
     x1="53.332001"
     x2="53.332001"
     xlink:href="#f"
     y1="101.334"
     y2="117.3336" />
  <linearGradient
     id="f">
    <stop
       offset="0"
       stop-color="#5ba322"
       id="stop23" />
    <stop
       offset="1"
       stop-color="#5ba322"
       stop-opacity="0"
       id="stop25" />
  </linearGradient>
  <linearGradient
     id="g"
     gradientTransform="matrix(2.0000002,0,0,1.2500312,-146.66521,-34.670668)"
     gradientUnits="userSpaceOnUse"
     x1="53.332001"
     x2="53.332001"
     xlink:href="#f"
     y1="101.334"
     y2="117.3336" />
  <linearGradient
     id="h"
     gradientTransform="matrix(0.2368324,0,0,0.30118904,-1.263075,260.58765)"
     gradientUnits="userSpaceOnUse"
     x1="46.048"
     x2="46.048"
     y1="128.01709"
     y2="16.6203">
    <stop
       offset="0"
       stop-color="#c7cdd7"
       id="stop29" />
    <stop
       offset="1"
       stop-color="#fff"
       id="stop31" />
  </linearGradient>
  <linearGradient
     id="i"
     gradientTransform="matrix(0.16282229,0,0,0.57727902,-284.8805,-33.86804)"
     gradientUnits="userSpaceOnUse"
     x1="114.65221"
     x2="114.65221"
     y1="104.00124"
     y2="114.66779">
    <stop
       offset="0"
       stop-color="#e6e9ed"
       id="stop34" />
    <stop
       offset="1"
       stop-color="#c9d1dc"
       stop-opacity="0"
       id="stop36" />
  </linearGradient>
  <linearGradient
     id="j"
     gradientUnits="userSpaceOnUse"
     x1="-88.000031"
     x2="-88.000031"
     y1="92"
     y2="112">
    <stop
       offset="0"
       stop-color="#595959"
       id="stop39" />
    <stop
       offset="1"
       stop-color="#595959"
       stop-opacity="0"
       id="stop41" />
  </linearGradient>
  <linearGradient
     id="k"
     gradientUnits="userSpaceOnUse"
     x1="-275.4469"
     x2="-275.4469"
     y1="24.629957"
     y2="32.326817">
    <stop
       offset="0"
       stop-color="#d4feb9"
       id="stop44" />
    <stop
       offset="1"
       stop-color="#d4feb9"
       stop-opacity="0"
       id="stop46" />
  </linearGradient>
  <filter
     id="l"
     height="1.306617"
     width="1.43589"
     x="-0.21794499"
     y="-0.153309"
     style="color-interpolation-filters:sRGB">
    <feGaussianBlur
       stdDeviation="3.1542391"
       id="feGaussianBlur49" />
  </filter>
  <linearGradient
     id="m"
     gradientUnits="userSpaceOnUse"
     x1="32.81356"
     x2="28.745762"
     y1="44.474575"
     y2="19.254236">
    <stop
       offset="0"
       stop-color="#070707"
       id="stop52" />
    <stop
       offset="1"
       stop-color="#474747"
       id="stop54" />
  </linearGradient>
  <g
     transform="matrix(0.171875,0,0,0.171875,0.26458334,-44.696951)"
     id="g87">
    <path
       inkscape:connector-curvature="0"
       style="opacity:0.764706;fill:url(#i)"
       d="m -283.14374,24.629957 h 16.9331 v 7.696861 h -16.9331 z"
       transform="rotate(-90)"
       id="path57" />
    <path
       inkscape:connector-curvature="0"
       style="fill:url(#h)"
       d="m 0,266.21066 h 24.629957 l 0.02706,24.63822 H 0.02705962 Z"
       id="path59"
       sodipodi:nodetypes="ccccc" />
    <path
       style="opacity:0.26291103;fill:#ffffff"
       inkscape:connector-curvature="0"
       d="m 4.618117,296.99997 h 30.691668 v 1.05833 H 4.618117 Z"
       id="path61" />
    <path
       inkscape:connector-curvature="0"
       style="fill:url(#j)"
       d="m -88,92 h 5.3332 v 20 H -88 Z"
       transform="matrix(0,-0.28863951,0.38484307,0,-10.775606,259.28286)"
       id="path63" />
    <path
       inkscape:connector-curvature="0"
       style="fill:url(#e)"
       d="m -66.667198,92 h 5.3332 v 20 h -5.3332 z"
       transform="matrix(0,-0.28863951,0.38484307,0,-10.775606,259.28286)"
       id="path65" />
    <path
       inkscape:connector-curvature="0"
       style="fill:url(#g)"
       d="m -45.3344,92 h 5.3332 v 20 h -5.3332 z"
       transform="matrix(0,-0.28863951,0.38484307,0,-10.775606,259.28286)"
       id="path67" />
    <path
       inkscape:connector-curvature="0"
       style="fill:url(#d)"
       d="m -266.21066,24.629957 h 1.53937 v 7.696861 h -1.53937 z"
       transform="rotate(-90)"
       id="path69" />
    <path
       style="fill:url(#linearGradient945);stroke-width:0.64960629"
       d="M 1 3 L 1 3.9980469 L 1 6.9960938 L 1 7.9941406 L 1 10.998047 L 1 11.996094 L 1 14.998047 L 1 16.003906 L 1.0175781 16.003906 L 1.0175781 19 L 1.0175781 20.003906 L 2.015625 20.003906 L 6.0175781 20.003906 L 7.015625 20.003906 L 11.017578 20.003906 L 12.015625 20.003906 L 16.017578 20.003906 L 17.017578 20.003906 L 17.017578 19 L 17.017578 15.998047 L 17.017578 14.998047 L 17.017578 11.996094 L 17.017578 10.996094 L 17.017578 8 L 17.017578 7.0019531 L 17 7.0019531 L 17 6.9960938 L 17 3.9980469 L 17 3 L 16.001953 3 L 12 3 L 11 3 L 7 3 L 6 3 L 1.9980469 3 L 1 3 z M 1.4824219 3.9980469 L 6.515625 3.9980469 L 6.515625 6.9960938 L 1.4824219 6.9960938 L 1.4824219 3.9980469 z M 7 3.9980469 L 11.515625 3.9980469 L 11.515625 6.9960938 L 7 6.9960938 L 7 3.9980469 z M 12 3.9980469 L 16.517578 3.9980469 L 16.517578 6.9960938 L 12 6.9960938 L 12 3.9980469 z M 1.5 8 L 6.515625 8 L 6.515625 10.996094 L 1.5 10.996094 L 1.5 8 z M 7.015625 8 L 11.515625 8 L 11.515625 10.996094 L 7.015625 10.996094 L 7.015625 8 z M 12.015625 8 L 16.517578 8 L 16.517578 10.996094 L 12.015625 10.996094 L 12.015625 8 z M 1.5 11.996094 L 6.515625 11.996094 L 6.515625 14.998047 L 1.5 14.998047 L 1.5 11.996094 z M 7.015625 11.996094 L 11.515625 11.996094 L 11.515625 14.998047 L 7.015625 14.998047 L 7.015625 11.996094 z M 12.015625 11.996094 L 16.517578 11.996094 L 16.517578 14.998047 L 12.015625 14.998047 L 12.015625 11.996094 z M 1.5 16.003906 L 1.9980469 16.003906 L 6 16.003906 L 6.5332031 16.003906 L 6.5332031 19 L 1.5 19 L 1.5 16.003906 z M 7.015625 16.003906 L 11 16.003906 L 11.533203 16.003906 L 11.533203 19 L 7.015625 19 L 7.015625 16.003906 z M 12.015625 16.003906 L 16.001953 16.003906 L 16.533203 16.003906 L 16.533203 19 L 12.015625 19 L 12.015625 16.003906 z "
       transform="matrix(1.539394,0,0,1.539394,-1.539394,260.05499)"
       id="path71" />
    <path
       inkscape:connector-curvature="0"
       style="fill:url(#b)"
       d="m 0,272.36813 h 23.909096 v 4.61812 H 0 Z"
       id="path73" />
    <path
       inkscape:connector-curvature="0"
       style="fill:url(#a)"
       d="m 0,270.82886 v 1.53376 4.62194 1.53789 0.003 h 0.74414062 v -0.003 H 8.4914714 v 0.003 h 0.7441409 v -0.003 h 6.9535797 v 0.003 h 0.74414 v -0.003 h 6.953581 v 0.003 h 0.743107 v -7.69669 z m 0.74414062,1.53376 H 8.4914714 v 4.62194 H 0.74414062 Z m 8.49147168,0 h 6.9535797 v 4.62194 H 9.2356123 Z m 7.6977197,0 h 6.953581 v 4.62194 h -6.953581 z"
       id="path75" />
    <path
       inkscape:connector-curvature="0"
       style="opacity:0.764706;fill:url(#k)"
       d="m -276.98627,24.629957 h 4.61811 v 7.696861 h -4.61811 z"
       transform="rotate(-90)"
       id="path77" />
    <path
       id="path948"
       d="m 24.630412,290.84287 v -1.53938 h 7.696861 v 1.53938 z"
       style="fill:url(#linearGradient950);stroke-width:0.33328804"
       inkscape:connector-curvature="0" />
    <g
       transform="matrix(0.396875,0,0,0.396875,10.591149,272.51109)"
       id="g85">
      <path
         style="opacity:0.76000001;filter:url(#l)"
         inkscape:connector-curvature="0"
         d="m 22.720703,5.15625 c -3.013405,0.030675 -5.734347,2.7794073 -5.734375,5.792969 v 43.93164 c 3.96e-4,3.429673 3.617041,6.371437 6.97461,5.671875 l 10.515624,-2.189453 2.808594,2.027344 c 1.551689,1.121614 3.676784,1.397262 5.464844,0.712891 0.01127,-0.0042 1.189475,-0.440287 2.488281,-1.167969 0.591578,-0.331442 1.457617,-0.847678 2.304688,-1.658203 0.390507,-0.37366 1.041481,-1.084667 1.507812,-2.017578 0.576268,-1.152849 0.952286,-2.610783 0.501953,-4.41211 -0.02267,-0.09068 -0.161327,-0.768547 -0.236328,-1.123047 L 56.125,46.123047 c 2.812058,-1.90024 3.258266,-6.468596 0.869141,-8.878906 v -0.002 L 26.892578,6.8710938 C 25.805548,5.7745428 24.264668,5.1410563 22.720703,5.15625 Z"
         id="path79" />
      <path
         style="fill:#ffffff"
         inkscape:connector-curvature="0"
         d="m 17.042969,8.3867188 c -2.126608,0.021647 -4.046855,1.9611722 -4.046875,4.0878902 V 56.40625 c 1.4e-4,1.210187 0.570764,2.408443 1.509765,3.171875 0.939002,0.763432 2.227365,1.076924 3.41211,0.830078 l 11.251953,-2.341797 3.419922,2.466797 c 1.095643,0.791969 2.595135,0.987874 3.857422,0.503906 h 0.002 c 0.0091,-0.0034 1.09236,-0.410391 2.259765,-1.064453 0.555108,-0.311009 1.260816,-0.734296 1.958985,-1.402344 0.33225,-0.317916 0.804398,-0.831261 1.162109,-1.546874 0.413737,-0.827699 0.696141,-1.943955 0.373047,-3.236329 -0.07021,-0.280852 -0.292605,-1.376547 -0.484375,-2.308593 l 7.755859,-5.242188 C 50.46708,45.5657 51.137238,44.438161 51.253953,43.246094 51.370668,42.054026 50.93144,40.819133 50.087938,39.96875 L 19.986328,9.5957031 C 19.219194,8.8218498 18.132569,8.3759963 17.042969,8.3867188 Z"
         transform="translate(5.694915,-3.525424)"
         id="path81" />
      <path
         inkscape:connector-curvature="0"
         style="fill:url(#m)"
         d="m 23.737884,11.281217 v 40.419921 l 11.863281,-2.470703 a 0.95888433,0.95888433 0 0 1 0.755859,0.16211 l 4.425782,3.197265 c 0.285679,-0.118453 0.599894,-0.234307 1.154297,-0.544922 0.384975,-0.215689 0.749087,-0.464247 0.9375,-0.644531 0.06051,-0.0579 0.06738,-0.07382 0.08789,-0.101562 -0.320785,-1.338154 -1.054687,-5.009766 -1.054687,-5.009766 a 0.95888433,0.95888433 0 0 1 0.402343,-0.982422 l 9.074219,-6.130859 z"
         id="path83" />
    </g>
  </g>
</svg>
